src/22/panel/indicator-keyboard-Tr.svg

<svg viewBox="0 0 22 22" xmlns="http://www.w3.org/2000/svg">
 <path d="m 3 1 c -1.108 0 -2 0.892 -2 2 l 0 16 c 0 1.108 0.892 2 2 2 l 16 0 c 1.108 0 2 -0.892 2 -2 l 0 -16 c 0 -1.108 -0.892 -2 -2 -2 l -16 0 z m 2.254 5.838 l 6.912 0 l 0 1.361 l -2.662 0 l 0 7.301 l -1.588 0 l 0 -7.301 l -2.662 0 l 0 -1.361 z m 10.137 1.986 c 0.1 0 0.218 0.009 0.352 0.025 c 0.133 0.008 0.265 0.026 0.398 0.051 c 0.133 0.017 0.264 0.041 0.389 0.074 c 0.125 0.025 0.224 0.051 0.299 0.076 l -0.262 1.273 c -0.125 -0.042 -0.3 -0.083 -0.525 -0.125 c -0.217 -0.05 -0.47 -0.074 -0.762 -0.074 c -0.167 0 -0.345 0.017 -0.537 0.051 c -0.183 0.033 -0.314 0.061 -0.389 0.086 l 0 5.238 l -1.512 0 l 0 -6.225 c 0.292 -0.108 0.655 -0.209 1.088 -0.301 c 0.442 -0.1 0.928 -0.15 1.461 -0.15 z" style="fill:#ececec;fill-opacity:1"/>
</svg>

<svg viewBox="0 0 22 22" xmlns="http://www.w3.org/2000/svg"><path d="M3 1c-1.108 0-2 .892-2 2v16c0 1.108.892 2 2 2h16c1.108 0 2-.892 2-2V3c0-1.108-.892-2-2-2H3zm2.254 5.838h6.912v1.361H9.504V15.5H7.916V8.199H5.254V6.838zm10.137 1.986c.1 0 .218.009.352.025.133.008.265.026.398.051.133.017.264.041.389.074.125.025.224.051.299.076l-.262 1.273a4.12 4.12 0 0 0-.525-.125 3.421 3.421 0 0 0-1.299-.023 3.277 3.277 0 0 0-.389.086v5.238h-1.512V9.274a7.961 7.961 0 0 1 1.088-.301c.442-.1.928-.15 1.461-.15z" fill="#ececec"/></svg>
